packages/admin/admin-icons/icons/scale-to-fit-on.svg

<svg xmlns="http://www.w3.org/2000/svg" width="16" height="16" viewBox="0 0 16 16"><path fill="#242424" fill-rule="evenodd" d="M12.5,2 C12.7761424,2 13,2.22385763 13,2.5 C13,2.74545989 12.8231248,2.94960837 12.5898756,2.99194433 L12.5,3 L1,3 L1,13 L15,13 L15,2.5 C15,2.25454011 15.1768752,2.05039163 15.4101244,2.00805567 L15.5,2 C15.7454599,2 15.9496084,2.17687516 15.9919443,2.41012437 L16,2.5 L16,13.5 C16,13.7454599 15.8231248,13.9496084 15.5898756,13.9919443 L15.5,14 L0.5,14 C0.254540111,14 0.0503916296,13.8231248 0.00805566941,13.5898756 L0,13.5 L0,2.5 C0,2.25454011 0.176875161,2.05039163 0.410124368,2.00805567 L0.5,2 L12.5,2 Z M9.7843055,7.08859116 L9.85355339,7.14644661 L13,10.292 L13,8.5 C13,8.25454011 13.1768752,8.05039163 13.4101244,8.00805567 L13.5,8 C13.7454599,8 13.9496084,8.17687516 13.9919443,8.41012437 L14,8.5 L14,11.5 L13.997179,11.5534276 L13.9833917,11.6281458 L13.9622078,11.6910366 L13.922812,11.7670103 L13.8824163,11.8221372 L13.8535534,11.8535534 L13.8116622,11.891039 L13.7497651,11.9332526 L13.6905951,11.9623894 L13.6281391,11.9833892 L13.5457862,11.997912 L13.5,12 L10.5,12 C10.2238576,12 10,11.7761424 10,11.5 C10,11.2545401 10.1768752,11.0503916 10.4101244,11.0080557 L10.5,11 L12.293,10.999 L9.14644661,7.85355339 C8.95118446,7.65829124 8.95118446,7.34170876 9.14644661,7.14644661 C9.32001296,6.97288026 9.58943736,6.95359511 9.7843055,7.08859116 Z M5.5,4 C5.77614237,4 6,4.22385763 6,4.5 C6,4.74545989 5.82312484,4.94960837 5.58987563,4.99194433 L5.5,5 L3.707,5.001 L6.85355339,8.14644661 C7.04881554,8.34170876 7.04881554,8.65829124 6.85355339,8.85355339 C6.67998704,9.02711974 6.41056264,9.04640489 6.2156945,8.91140884 L6.14644661,8.85355339 L3,5.708 L3,7.5 C3,7.74545989 2.82312484,7.94960837 2.58987563,7.99194433 L2.5,8 C2.25454011,8 2.05039163,7.82312484 2.00805567,7.58987563 L2,7.5 L2,4.5 L2.00282096,4.4465724 L2.01660826,4.37185423 L2.03779224,4.30896344 L2.07718801,4.23298968 L2.11758372,4.17786279 L2.14644661,4.14644661 L2.18833775,4.10896102 L2.25023485,4.06674743 L2.3094049,4.03761056 L2.37186086,4.01661082 L2.45421382,4.00208799 L2.5,4 L5.5,4 Z"/></svg>

<svg width="16" height="16" fill="none" viewBox="0 0 16 16">
  <path fill="#242424" d="M.41 2.009a.5.5 0 0 0-.41.492v11l.008.09A.5.5 0 0 0 .5 14h15l.09-.008A.5.5 0 0 0 16 13.5v-11l-.008-.09A.5.5 0 0 0 15.5 2l-.09.008A.5.5 0 0 0 15 2.5V13H1V3h11.5l.09-.008A.5.5 0 0 0 12.5 2H.5l-.09.008Z M2 7.501v-3l.003-.053.014-.075.02-.063.04-.076.04-.055.03-.032.041-.037.062-.042.06-.03.062-.02.082-.015.046-.002h3a.5.5 0 0 1 .09.992L5.5 5l-1.793.001 3.147 3.145a.5.5 0 0 1-.638.765l-.07-.057L3 5.709v1.792a.5.5 0 0 1-.41.492L2.5 8a.5.5 0 0 1-.492-.41L2 7.5Zm12 1v3l-.003.053-.014.075-.02.063-.04.076-.04.055-.03.031-.041.038-.062.042-.06.03-.062.02-.082.015L13.5 12h-3a.5.5 0 0 1-.09-.992L10.5 11h1.793L9.146 7.855a.5.5 0 0 1 .638-.765l.07.057L13 10.293V8.501a.5.5 0 0 1 .41-.492l.09-.008a.5.5 0 0 1 .492.41l.008.09Z"/>
</svg>
